X: 613
T: Dün Gece Sende
C: Şakir Ağa
O: Turkey
F: http://compmusic.upf.edu/node/140
N: buselik--sarki--turkaksagi--dun_gece_sende--sakir_aga
N: makam= buselik
N: form= sarki
N: usul= turkaksagi = 5/8
M: 5/8
L: 1/16
K: C    
Q: 1/4=204
%%MIDI tuningsystem comma53
G2G2 .e4 d2 | dc cBBA {B}ABAB  | G2G2 .e4 d2 | \
w:  ARANAĞME  |   |   | 
dc cBc3cBA  | 
w:   | 
G2G2 .e4 d2 | dc cBBA {B}ABAB  | G2G2 .e4 d2 | \
w:  ARANAĞME  |   |   | 
dc cBcd c2d2  | 
w:   | 
e2e2 g4 a2 | ag gffe e^de2  | g3/2^2/4f/ga g=fed ed | 
w:   |   |   | 
dc dBc6  | e2e2 g4 a2 | ag gffe ed{e}c2  | \
w:   |   |   | 
edcB dcBc BA | 
w:   | 
cB A^GA4z2  | e2e2 g4 a2 | ag gffe e^de2  | \
w:   |   |   | 
g3/2^2/4f/ga g=fed ed | 
w:   | 
dc dBc6  | e2e2 g4 a2 | ag gffe ed{e}c2  | \
w:   |   |   | 
edcB dcBc BA | 
w:   | 
cB A^GA4z2  | G4 c4 d2 | e2 f2g4z2  | g2f2 e4 c2 | \
w:   |  Dün  ge ce   |  sen *  de    |  *  Ben  derd_ i   | 
d2 f2ed cBAB  | 
w:  men *  de    | 
G4 c4 d2 | e2 f2g4z2  | c4 B4 A2 | c{d}B {c}A{B}^GA4z2  | \
w:  Dün  ge ce   |  sen *  de    |  Ben  derd_ i   |  men *  *  *  *  *  *  de    | 
a4 a4 b2 | c'{d'}b {c'}a^ga4z2  | 
w:  Oy nar ken_  |  ey  *  *  *  *  *  meh    | 
e2g2 ^f2a2 g=f | f{g}e {f}eded cBA2  | \
w:  a *  man  *  a  |  man    | 
a4 a4 b2 | c'{d'}b {c'}a^ga4z2  | 
w:  Oy nar ken_  |  ey  *  *  *  *  *  meh    | 
e2g2 ^f2a2 g=f | f{g}e {f}eded cBA2  | \
w:  a *  man  *  a  |  man    | 
G4 c4 d2 | e2 f2g4z2  | 
w:  At tın  pe  |  ren *  de    | 
g2f2 e4 d2 | d2 f2ed cBAB  | G4 c4 d2 | \
w:  Ey  *  zülf_ i   |  zer *  rin    |  At tın  pe  | 
e2 f2g4z2  | c4 B4 A2 | 
w:  ren *  de    |  Ey  zülf_ i   | 
c{d}B {c}A{B}^GAB cde2  | gfed edcB A2 | \
w:  zer *  *  *  *  *  *  rin    |  Gel  *  *  *  et *  *  *  me   | 
cB A^GA4z2  | 
w:  tem *  *  *  kin    | 
G2G2 .e4 d2 | dc cBBA {B}ABAB  | G2G2 .e4 d2 | \
w:  ARANAĞME  |   |   | 
dc cBc3cBA  | 
w:   | 
G2G2 .e4 d2 | dc cBBA {B}ABAB  | G2G2 .e4 d2 | \
w:  ARANAĞME  |   |   | 
dc cBcd c2d2  | 
w:   | 
e2e2 g4 a2 | ag gffe e^de2  | g3/2^2/4f/ga g=fed ed | 
w:   |   |   | 
dc dBc6  | e2e2 g4 a2 | ag gffe ed{e}c2  | \
w:   |   |   | 
edcB dcBc BA | 
w:   | 
cB A^GA4z2  | e2e2 g4 a2 | ag gffe e^de2  | \
w:   |   |   | 
g3/2^2/4f/ga g=fed ed | 
w:   | 
dc dBc6  | e2e2 g4 a2 | ag gffe ed{e}c2  | \
w:   |   |   | 
edcB dcBc BA | 
w:   | 
cB A^GA4z2  | G4 c4 d2 | e2 f2g4z2  | g2f2 e4 c2 | \
w:   |  Dün  ge ce   |  sen *  de    |  *  Ben  derd_ i   | 
d2 f2ed cBAB  | 
w:  men *  de    | 
G4 c4 d2 | e2 f2g4z2  | c4 B4 A2 | c{d}B {c}A{B}^GA4z2  | \
w:  Dün  ge ce   |  sen *  de    |  Ben  derd_ i   |  men *  *  *  *  *  *  de    | 
a4 a4 b2 | c'{d'}b {c'}a^ga4z2  | 
w:  Oy nar ken_  |  ey  *  *  *  *  *  meh    | 
e2g2 ^f2a2 g=f | f{g}e {f}eded cBA2  | \
w:  a *  man  *  a  |  man    | 
a4 a4 b2 | c'{d'}b {c'}a^ga4z2  | 
w:  Oy nar ken_  |  ey  *  *  *  *  *  meh    | 
e2g2 ^f2a2 g=f | f{g}e {f}eded cBA2  | \
w:  a *  man  *  a  |  man    | 
G4 c4 d2 | e2 f2g4z2  | 
w:  At tın  pe  |  ren *  de    | 
g2f2 e4 d2 | d2 f2ed cBAB  | G4 c4 d2 | \
w:  Ey  *  zülf_ i   |  zer *  rin    |  At tın  pe  | 
e2 f2g4z2  | c4 B4 A2 | 
w:  ren *  de    |  Ey  zülf_ i   | 
c{d}B {c}A{B}^GAB cde2  | gfed edcB A2 | \
w:  zer *  *  *  *  *  *  rin    |  Gel  *  *  *  et *  *  *  me   | 
cB A^GA4z2  | 
w:  tem *  *  *  kin    | 
|


